svg/fluentui-system-icons/ic_fluent_leaf_one_20_filled.svg

<svg width="20" height="20" viewBox="0 0 20 20" fill="none" xmlns="http://www.w3.org/2000/svg">
<path d="M11.0719 2.46245C10.4836 1.86148 9.5163 1.86147 8.92803 2.46245L5.69125 5.76912C3.37949 8.1308 3.39969 11.9133 5.73654 14.2502C5.74035 14.254 5.74416 14.2578 5.74797 14.2616C5.75108 14.2647 5.7542 14.2678 5.75731 14.2709C6.80161 15.3152 8.13507 15.8941 9.49995 16.0075V17.4989C9.49995 17.7751 9.72381 17.9989 9.99995 17.9989C10.2761 17.9989 10.5 17.7751 10.5 17.4989V16.0075C11.8648 15.8941 13.1983 15.3152 14.2426 14.2709C14.2457 14.2678 14.2488 14.2647 14.2519 14.2616C14.2557 14.2578 14.2595 14.254 14.2634 14.2502C16.6002 11.9133 16.6204 8.13081 14.3087 5.76913L11.0719 2.46245ZM10.5 14.9914C10.1675 15.0244 9.8324 15.0244 9.49995 14.9914V9.49892C9.49995 9.22277 9.72381 8.99892 9.99995 8.99892C10.2761 8.99892 10.5 9.22277 10.5 9.49892V14.9914Z" fill="#212121"/>
</svg>

<svg xmlns="http://www.w3.org/2000/svg" width="20" height="20"><path d="M11.072 2.462a1.5 1.5 0 0 0-2.144 0L5.691 5.77a6.03 6.03 0 0 0 .057 8.493l.01.009A5.976 5.976 0 0 0 9.5 16.007V17.5a.5.5 0 1 0 1 0v-1.491a5.976 5.976 0 0 0 3.743-1.737l.009-.01.011-.01a6.03 6.03 0 0 0 .046-8.482l-3.237-3.307Zm-.572 12.53a5.063 5.063 0 0 1-1 0V9.498a.5.5 0 1 1 1 0v5.492Z"/></svg>
